!!!!SEGMENT: pl-sa--72-a-ii-12--003_anonim--pastorall-galopp.krn
!!!cenid: 18xx:654
!!!COM: Anonim
!!!COM-rismID: pe30004985
!!!CDT:
!!!CNT:
!!!OTL: Pastorall Galopp
!!!PDT:
!!!AGN: Secular; Galop
!!!SMS-siglum: PL-SA
!!!SMS-shelfmark: 72/A II 12
!!!SMS-shelfwork: 003 W
!!!SMS-variant:
!!!SMS-altvar:
!!!NIFC-rismSourceID: 1001065749
!!!NIFC-rismChildID: 1001065749
!!!NIFC-islandoraID:
!!!URL-pdf-islandora:
!!!URL-scan: https://bc.bdsandomierz.pl/dlibra/publication/1349/edition/1317/content @EN{Scan in the Sandomierz Diocese Digital Library} @PL{Skany w portalu Cyfrowa Biblioteka Diecezjalna w Sandomierzu}
!!!ONB-nifc: Str. 3 (s. 2) – str. 4
!!!AIN: 1 piano
!!!key:
**kern	**kern	**dynam
*part1	*part1	*part1
*staff2	*staff1	*
*Ipiano	*Iempty	*
*I"Pianoforte	*	*
*I'P-no	*	*
*clefF4	*clefG2	*
*k[b-]	*k[b-]	*
*F:	*F:	*
*M2/4	*M2/4	*
=1	=1	=1
*A	*A	*A
!	!LO:TX:rj:a:t=Pastorall Galopp	!
4F/ 4C/ 4FF/	8c/L 8A/	f
.	16c/L 16A/	.
.	16c/JJ 16A/	.
8F/L 8C/ 8FF/	8c/L 8A/	.
8F/J 8C/ 8FF/	8c/J 8A/	.
=2	=2	=2
8F/L 8C/ 8FF/	8c/L 8A/	.
8F/J 8C/ 8FF/	8f/J 8c/ 8A/	.
4F/ 4C/ 4FF/	4a/ 4c/ 4A/	.
=3	=3	=3
8F/L 8C/ 8FF/	8a/L 8c/ 8A/	.
8F/ 8C/ 8FF/	8a/ 8c/ 8A/	.
8F/ 8C/ 8FF/	8g/ 8c/ 8A/	.
8F/J 8C/ 8FF/	8f/J 8c/ 8A/	.
=4	=4	=4
4G/ 4C/ 4GG/	4f/ 4c/ 4B-/	.
8G/ 8C/ 8GG/	8e/ 8c/ 8B-/	.
8r	8r	.
=5	=5	=5
8C\L	8ccc\L 8cc\	p
8c\ 8G\ 8E\	8ccc\	.
8c\ 8G\ 8E\	8ccc\ 8bbn\	.
8c\J 8G\ 8E\	8ccc\J 8bb-X\	.
=6	=6	=6
!LO:TX:a:t=P:problem=mixed beam	!	!
8FF/L	8ccc\L 8aa\	.
8c\ 8A\ 8F\	8ccc\J 8aa\	.
8c\ 8A\ 8F\	4ccc\ 4aa\ 4ff\	.
8c\J 8A\ 8F\	.	.
=7	=7	=7
8C\L	8ccc\L 8cc\	.
8e\J 8c\ 8B-\ 8G\	8bb-\	.
8C\L	8dd\ 8bn\	.
8e\J 8c\ 8B-\ 8G\	8ee\J 8b-X\	.
=8	=8	=8
8F\L	4gg\ 4b-\	.
8f\ 8A\	.	.
8f\ 8A\	8ff\ 8a\	.
8f\J 8A\	8r	.
!!LO:LB:g=original
=9	=9	=9
4F/ 4FF/	8a/L 8f/ 8c/	f
.	16a/L 16f/ 16c/	.
.	16a/JJ 16f/ 16c/	.
8F/L 8FF/	8a/L 8f/ 8c/	.
8F/J 8FF/	8a/J 8f/ 8c/	.
=10	=10	=10
4E/ 4EE/	4g/ 4c#X/ 4A/	.
4E/ 4EE/	4g/ 4c#/ 4A/	.
=11	=11	=11
4D/ 4DD/	8f/L 8d/ 8A/	.
.	16f/L 16d/ 16A/	.
.	16f/JJ 16d/ 16A/	.
8D/L 8DD/	8f/L 8d/ 8A/	.
8D/J 8DD/	8f/J 8d/ 8A/	.
=12	=12	=12
4C/ 4CC/	4e-X/ 4A/ 4F/	.
4C/ 4CC/	4e-/ 4A/ 4F/	.
=13	=13	=13
!	!LO:TX:a:t=P:problem=mixed beam	!
8D\L	8d/L	.
8d\ 8A\ 8F#X\	8dd\	.
8d\ 8A\ 8F#\	8dd\ 8cc#X\	.
8d\J 8A\ 8F#\	8dd\J 8ccn\	.
=14	=14	=14
8GG/	8dd\L 8b-\	.
8d\L 8B-\ 8G\	8dd\J	.
8d\ 8B-\ 8G\	4dd\ 4g\	.
8d\J 8B-\ 8G\	.	.
=15	=15	=15
8C\L	8dd\L 8b-\	.
8e\J 8c\ 8B-\ 8G\	8cc\ 8a\	.
8C\L	8dd\ 8bn\	.
8e\J 8c\ 8B-\ 8G\	8ee\J 8b-X\	.
=16	=16	=16
4f\ 4c\ 4A\ 4F\	4ff\ 4a\	.
4r	4r	.
*B	*B	*B
=17:|!|:	=17:|!|:	=17:|!|:
4A\ 4AA\	8aa\L 8ee\ 8cc#X\ 8a\	.
.	16aa\L 16ee\ 16cc#\ 16a\	.
.	16aa\JJ 16ee\ 16cc#\ 16a\	.
8A\L 8AA\	8aa\L 8ee\ 8cc#\ 8a\	.
8A\J 8AA\	8aa\J 8ee\ 8cc#\ 8a\	.
=18	=18	=18
*2\right	*	*
2Bn\ 2G#X\ 2E\	(4bbn\ 4bn\	.
.	8ee\)	.
.	8r	.
=19	=19	=19
4E/ 4EE/	8bb-\L 8gg#X\ 8ee\ 8dd\	.
.	16bb-\L 16gg#\ 16ee\ 16dd\	.
.	16bb-\JJ 16gg#\ 16ee\ 16dd\	.
8E/L 8EE/	8bb-\L 8gg#\ 8ee\ 8dd\	.
8E/J 8EE/	8bb-\J 8gg#\ 8ee\ 8dd\	.
=20	=20	=20
2A\ 2E\ 2CnX\ 2AA\	4cccnX\ 4ccnX\	.
.	8aa\	.
.	8r	.
!!LO:LB:g=original
=21	=21	=21
4G/ 4GG/	8bb-\L 8ee\ 8cc#X\	.
.	16bb-\L 16ee\ 16cc#\	.
.	16bb-\JJ 16ee\ 16cc#\	.
8G\L 8GG\	8bb-\L 8ee\ 8cc#\	.
8G\J 8GG\	8bb-\J 8ee\ 8cc#\	.
=22	=22	=22
8F/L 8FF/	8dd\L	.
8D/ 8DD/	8ff\	.
8E/ 8EE/	8ee\	.
8F/J 8FF/	8dd\J	.
=23	=23	=23
4G/ 4GG/	4cc\ 4g\ 4e\	.
4r	4r	.
=24	=24	=24
4G/ 4GG/	4bn/ 4g/ 4f/ 4d/	.
4r	4r	.
=25	=25	=25
*tremolo	*	*
8G\	8gg\ 8g\	p
*tremolo	*	*
8f\ 8d\L	8r	.
8f\ 8d\	8gg\ 8g\	.
8f\ 8d\J	8r	.
=26	=26	=26
*rep	*	*
8G\	8aa\ 8a\	.
8f\ 8d\L	8r	.
8f\ 8d\	8bbn\ 8bn\	.
8f\ 8d\J	8r	.
*Xrep	*	*
=27	=27	=27
8C\	8ccc\ 8cc\	.
8e\ 8c\L	8r	.
8e\ 8c\	8ccc\ 8cc\	.
8e\ 8c\J	8r	.
=28	=28	=28
*rep	*	*
8C\	8ddd\ 8dd\	.
8e\ 8c\L	8r	.
8e\ 8c\	[>4eee\ [>4ee\	.
8e\ 8c\J	.	.
*Xrep	*	*
=29	=29	=29
8G\	8eee\] 8ee\]	.
8d\ 8Bn\L	8r	.
8d\ 8Bn\	8fff\ 8ff\	.
8d\ 8Bn\J	8r	.
=30	=30	=30
*rep	*	*
8G\	4aa-X\ 4a-X\	.
8d\ 8Bn\L	.	.
8d\ 8Bn\	8gg\ 8g\	.
8d\ 8Bn\J	8r	.
*Xrep	*	*
=31	=31	=31
8G\	8ddd\ 8dd\	.
8e\ 8c\L	8r	.
8e\ 8c\	(>(>4eee\ 4ee\	.
8e\ 8c\J	.	.
=32	=32	=32
*rep	*	*
8G\	4aa\ 4a\))	.
8e\ 8c\L	.	.
8e\ 8c\	8gg\ 8g\	.
8e\ 8c\J	8r	.
*Xrep	*	*
*Xtremolo	*	*
!LO:TX:a:t=V&colon;S&colon;	!	!
!!LO:PB:g=original
=33	=33	=33
8G\L	8gg\ 8g\	.
8d\ 8BnX\	8r	.
8G\	8gg\ 8g\	.
8d\J 8BnX\	8r	.
=34	=34	=34
8F#X\L	8aa\ 8a\	.
8d\	8r	.
8F#\	8bbn\ 8bn\	.
8d\J	8r	.
=35	=35	=35
8E\L	8ccc\ 8cc\	.
8c\ 8G\	8r	.
8E-X\	8ccc\ 8cc\	.
8c\J 8G\	8r	.
=36	=36	=36
8D\L	8ddd\ 8dd\	.
8Bn\ 8G\	8r	.
8C#X\	[>4eee\ [>4ee\	.
8B-X\J 8G\	.	.
=37	=37	=37
8D\L	8eee\] 8ee\]	.
8d\ 8A\	8r	.
8F\	8fff\ 8ff\	.
8d\J 8A\	8r	.
=38	=38	=38
8G\	4aa\ 4a\	.
4.d\ 4.Bn\	.	.
.	8gg\ 8g\	.
.	8r	.
=39	=39	=39
4e\ 4c\	8ccc\L 8cc\	.
.	16ccc\L 16cc\	.
.	16ccc\JJ 16cc\	.
4r	8ccc\L 8cc\	.
.	8ccc\J 8cc\	.
=40	=40	=40
2r	8ccc\L 8cc\	.
.	8ccc\ 8cc\	.
.	8ccc\ 8cc\	.
.	8ccc\J 8cc\	.
!LO:TX:a:t=D&colon;C&colon;	!	!
*C	*C	*C
=41!|:	=41!|:	=41!|:
*k[b-e-]	*k[b-e-]	*
*M2/4	*M2/4	*
!	!LO:TX:a:t=Trio.	!
[>2F\ [>2BB-\	4b-\	.
.	8dd\L	.
.	8f\J	.
=42	=42	=42
2F\] 2BB-\]	8b-\L	.
.	8f\J	.
.	4dd\	.
=43	=43	=43
[>2F\ [>2BB-\	4b-\	.
.	8dd\L	.
.	8f\J	.
=44	=44	=44
2F\] 2BB-\]	8b-\L	.
.	8f\J	.
.	4ff\	.
=45	=45	=45
*tremolo	*	*
8F/ 8FF/	8r	f
8c\ 8A\ 8F\L	8fff\L 8ff\	.
8c\ 8A\ 8F\	8eeen\ 8een\	.
8c\ 8A\ 8F\J	8eee-X\J 8ee-X\	.
=46	=46	=46
8BB-/	8ddd\L 8dd\	.
8d\ 8B-\ 8F\L	8ddd-X\ 8dd-X\	.
8d\ 8B-\ 8F\	8ccc\ 8cc\	.
8d\ 8B-\ 8F\J	8bbn\J 8bn\	.
=47	=47	=47
8FF/	8bb-X\L 8b-X\	.
8e-\ 8c\ 8F\L	8aa\ 8a\	.
8e-\ 8c\ 8F\	8gg\ 8g\	.
8e-\ 8c\ 8F\J	8aa\J 8a\	.
!!LO:LB:g=original
=48	=48	=48
!	!LO:TX:a:t=1.Vol.	!
8BB-/	8bb-\L 8b-\	.
8d\ 8B-\ 8F\L	8ddd\J 8dd\	.
8d\ 8B-\ 8F\	4ff\ 4f\	.
8d\ 8B-\ 8F\J	.	.
*D	*D	*D
=49:|!|:	=49:|!|:	=49:|!|:
!	!LO:TX:a:t=2.Vol.	!
4d\ 4B-\	4bb-\ 4b-\	.
4r	4r	.
=50	=50	=50
*k[b-e-a-d-g-c-]	*k[b-e-a-d-g-c-]	*
8G-\	4bb-\	.
8d-\ 8B-\L	.	.
8d-\ 8B-\	8dd-\L	.
8d-\ 8B-\J	8gg-\J	.
=51	=51	=51
*rep	*	*
8G-\	8bb-\L	.
8d-\ 8B-\L	8dd-\J	.
8d-\ 8B-\	4gg-\	.
8d-\ 8B-\J	.	.
*Xrep	*	*
=52	=52	=52
*rep	*	*
8G-\	4bb-\	.
8d-\ 8B-\L	.	.
8d-\ 8B-\	8dd-\L	.
8d-\ 8B-\J	8gg-\J	.
*Xrep	*	*
=53	=53	=53
8F\	8ddd-\	.
8f\ 8c-\ 8A-\L	8r	.
8f\ 8c-\ 8A-\	4aa-\	.
8f\ 8c-\ 8A-\J	.	.
=54	=54	=54
!LO:N:vis=4	!	!
8G-\	4bb-\	.
8d-\ 8B-\L	.	.
8d-\ 8B-\	8dd-\L	.
8d-\ 8B-\J	8gg-\J	.
=55	=55	=55
*rep	*	*
!LO:N:vis=4	!	!
8G-\	8bb-\L	.
8d-\ 8B-\L	8dd-\J	.
8d-\ 8B-\	4gg-\	.
8d-\ 8B-\J	.	.
*Xrep	*	*
=56	=56	=56
8En\	4ddd-\	.
8d-\ 8B-\L	.	.
8d-\ 8B-\	8cccn\L	.
8d-\ 8B-\J	8bb-\J	.
*Xtremolo	*	*
=57	=57	=57
4cn\ 4An\ 4F\	4.fff\ 4.ff\	.
4r	.	.
.	8ff\	.
=58	=58	=58
*k[bnenandngncn]	*k[bnenandngncn]	*
8e\L 8c\ 8A\	8ee\L 8f\	.
8F\	16r	.
.	16ff\K 16f\	.
8e\ 8c\ 8A\	8ff\ 8f\	.
8F\J	16r	.
.	16ff\Jk 16f\	.
=59	=59	=59
8d\L 8B\	8ff\L 8f\	.
8F\	16r	.
.	16gg\Jk 16g\	.
8d\ 8B\	[4ff\ [4f\	.
8F\J	.	.
=60	=60	=60
8d\L 8BnX\	8ff\]L 8f\]	.
8F\	16r	.
.	16gg\K 16g\	.
8d\ 8B\	8gg\ 8g\	.
8F\J	16r	.
.	16gg\Jk 16g\	.
=61	=61	=61
*rep	*	*
8d\L 8BnX\	(4aa-X\ 4a-X\	.
8F\	.	.
8d\ 8B\	8gg\ 8g\)	.
8F\J	8r	.
*Xrep	*	*
!!LO:LB:g=original
=62	=62	=62
8e\L 8c\	8aa\L 8a\	.
8F\	16r	.
.	16aa\K 16a\	.
8e\ 8c\	8aa\ 8a\	.
8F\J	16r	.
.	16aa\Jk 16a\	.
=63	=63	=63
8e\L 8c\	8aa\L	.
8F#X\	16r	.
.	16bb\Jk	.
8e\ 8c\	[4aa\	.
8F#\J	.	.
=64	=64	=64
8G\L	8aa\L]	.
8d\ 8B\	8ccc\	.
8d\ 8B\	8bb\	.
8d\J 8B\	8ff#X\J	.
=65	=65	=65
8E\	4aa\	.
*tremolo	*	*
8c\ 8G\L	.	.
8c\ 8G\	8gg\	.
8c\ 8G\J	8r	.
*Xtremolo	*	*
=66	=66	=66
8F\L	8ee\L	.
8d\J 8B\	8gg\	.
8F\L	8ff\	.
8e\J 8c\	8cc\J	.
=67	=67	=67
*	*2\right	*
4d\ 4B\	[2b\	.
4r	.	.
=68	=68	=68
[>2F\ [>2BB\	4b\]	.
.	8dd\L	.
.	8f\J	.
=69	=69	=69
2F\] 2BB\]	8b\L	.
.	8f\J	.
.	4dd\	.
=70	=70	=70
[>2F\ [>2BB\	4b\	.
.	8dd\L	.
.	8f\J	.
=71	=71	=71
2F\] 2BB\]	8b\L	.
.	8f\J	.
.	4ff\	.
=72	=72	=72
[>2F\ [>2BB\	8b\L	.
.	8f\	.
.	8dd\	.
.	8f\J	.
=73	=73	=73
2F\] 2BB\]	8b\L	.
.	8f\	.
.	8ff\	.
.	8f\J	.
=74	=74	=74
[>2F\ [>2BB\	8b\L	.
.	8f\	.
.	8dd\	.
.	8f\J	.
=75	=75	=75
2F\] 2BB\]	8b\L	.
.	8f\J	.
.	4bb\	.
=:|!	=:|!	=:|!
*-	*-	*-
!!!system-decoration: [s1,s2]
!!!RDF**kern: > = above
!!!RDF**kern: < = below
!!!RDF**dynam: p = po
!!!RDF**dynam: f = fo.
!!!EED: Leszek Kubiak
!!!EEV: 2020-11-30
!!!ENC: Tomasz Grochalski
!!!END: 2020-06-20
!!!YEC: Copyright 2022 Narodowy Instytut Fryderyka Chopina (https://polishscores.org)
!!!YEM: License CC-BY-4.0 (https://creativecommons.org/licenses/by/4.0)
